svg/color/atom.svg

<?xml version="1.0" encoding="UTF-8"?>
<svg width="32px" height="32px" viewBox="0 0 32 32" version="1.1" xmlns="http://www.w3.org/2000/svg" xmlns:xlink="http://www.w3.org/1999/xlink">
    <!-- Generator: Sketch 53 (72520) - https://sketchapp.com -->
    <title>svg/color/atom</title>
    <desc>Created with Sketch.</desc>
    <g id="color/atom" stroke="none" stroke-width="1" fill="none" fill-rule="evenodd">
        <g id="Group" fill="#2E3148" fill-rule="nonzero">
            <circle id="Oval" cx="16" cy="16" r="16"></circle>
        </g>
        <g id="atom" transform="translate(6.000000, 5.000000)" fill="#FFFFFF" fill-rule="nonzero">
            <path d="M10.0196704,0.530546401 C8.7248569,0.530546401 7.67524718,5.22657415 7.67524718,11.0197745 C7.67524718,16.8129748 8.7248569,21.5092108 10.0196704,21.5092108 C11.314484,21.5092108 12.3644059,16.8128708 12.3644059,11.0197745 C12.3644059,5.22667823 11.3143799,0.530546401 10.0196704,0.530546401 Z M10.1816132,20.9171206 C10.0335126,21.1148656 9.88541197,20.9665568 9.88541197,20.9665568 C9.28905464,20.27549 8.99098005,18.9920208 8.99098005,18.9920208 C7.94792715,15.6353513 8.19625325,8.42827407 8.19625325,8.42827407 C8.68634866,2.70678231 9.57838682,1.35524718 9.88145707,1.05509107 C9.94554569,0.992036212 10.0456697,0.98413515 10.1188552,1.03635733 C10.5592021,1.3485863 10.9284649,2.65297485 10.9284649,2.65297485 C12.0188725,6.70060711 11.9201041,10.5014744 11.9201041,10.5014744 C12.0188725,13.8088118 11.3737034,17.5109107 11.3737034,17.5109107 C10.8770512,20.32451 10.1816132,20.9168083 10.1816132,20.9168083 L10.1816132,20.9171206 Z" id="Shape"></path>
            <path d="M19.1181266,5.79972246 C18.4734779,4.67621856 13.878196,6.10279271 8.85130963,8.98601908 C3.82442324,11.8692454 0.277606245,15.1167389 0.921734605,16.2401388 C1.56586297,17.3635386 6.16208153,15.9369644 11.189072,13.0537381 C16.2160624,10.1705117 19.7627754,6.92301821 19.118647,5.79961839 L19.1181266,5.79972246 Z M1.51549003,16.0852732 C1.26872507,16.0540503 1.32450997,15.8513096 1.32450997,15.8513096 C1.62705984,14.9903903 2.59059844,14.0930442 2.59059844,14.0930442 C4.98424978,11.5177797 11.359549,8.14685169 11.359549,8.14685169 C16.5657589,5.72468343 18.1828968,5.82678231 18.5928534,5.93939289 C18.680091,5.96348081 18.7371067,6.04713309 18.7276323,6.1371379 C18.6783001,6.67417173 17.7284996,7.64364267 17.7284996,7.64364267 C14.761804,10.6054467 11.4155421,12.4115872 11.4155421,12.4115872 C8.5955941,14.1437294 5.06293148,15.4253252 5.06293148,15.4253252 C2.37516045,16.393235 1.51528187,16.0852732 1.51528187,16.0852732 L1.51549003,16.0852732 Z" id="Shape"></path>
            <path d="M19.095438,16.277294 C19.7449783,15.1568083 16.2077363,11.8939115 11.1973981,8.9894536 C6.18705984,6.08499566 1.59302689,4.64062446 0.943902862,5.7630876 C0.294778838,6.88555074 3.83160451,10.1464701 8.84433651,13.050928 C13.8570685,15.9553859 18.446314,17.3993408 19.095438,16.277294 Z M1.37436253,6.19552472 C1.27809193,5.96801388 1.48093669,5.91316565 1.48093669,5.91316565 C2.37776236,5.74393755 3.63760624,6.12985256 3.63760624,6.12985256 C7.06483955,6.91042498 13.175889,10.738248 13.175889,10.738248 C17.8810755,14.0302862 18.6032611,15.4805898 18.710876,15.8922116 C18.7335389,15.9793624 18.6901757,16.0701746 18.6081526,16.1073374 C18.1175369,16.3319341 16.8034692,15.9973287 16.8034692,15.9973287 C12.7533391,14.9112923 9.51417173,12.9215611 9.51417173,12.9215611 C6.60378144,11.351778 3.72596704,8.93658283 3.72596704,8.93658283 C1.53921943,7.09547268 1.3754033,6.19750217 1.3754033,6.19750217 L1.37436253,6.19552472 Z" id="Shape"></path>
            <circle id="Oval" cx="9.99500434" cy="10.9950043" r="1.23403296"></circle>
            <ellipse id="Oval" cx="15.0546748" cy="6.25620121" rx="1" ry="1"></ellipse>
            <ellipse id="Oval" cx="3.30643539" cy="8.77370338" rx="1" ry="1"></ellipse>
            <ellipse id="Oval" cx="8.53887251" cy="17.85634" rx="1" ry="1"></ellipse>
        </g>
    </g>
</svg>

<svg width="32" height="32" viewBox="0 0 32 32" xmlns="http://www.w3.org/2000/svg"><g fill="none"><circle cx="16" cy="16" r="16" fill="#2E3148"/><g transform="translate(6 5)" fill="#FFF"><path d="M10.02.53c-1.295 0-2.345 4.697-2.345 10.49s1.05 10.49 2.345 10.49c1.294 0 2.344-4.697 2.344-10.49S11.314.53 10.02.53zm.162 20.387c-.148.198-.297.05-.297.05-.596-.692-.894-1.975-.894-1.975-1.043-3.357-.795-10.564-.795-10.564.49-5.721 1.382-7.073 1.685-7.373a.185.185 0 0 1 .238-.019c.44.313.81 1.617.81 1.617 1.09 4.048.991 7.848.991 7.848.099 3.308-.546 7.01-.546 7.01-.497 2.814-1.192 3.406-1.192 3.406z"/><path d="M19.118 5.8c-.645-1.124-5.24.303-10.267 3.186-5.027 2.883-8.573 6.13-7.93 7.254.645 1.124 5.241-.303 10.268-3.186 5.027-2.883 8.574-6.131 7.93-7.254zM1.515 16.085c-.246-.03-.19-.234-.19-.234.302-.86 1.266-1.758 1.266-1.758 2.393-2.575 8.769-5.946 8.769-5.946 5.206-2.422 6.823-2.32 7.233-2.208a.185.185 0 0 1 .135.198c-.05.537-1 1.507-1 1.507-2.966 2.961-6.312 4.768-6.312 4.768-2.82 1.732-6.353 3.013-6.353 3.013-2.688.968-3.548.66-3.548.66z"/><path d="M19.095 16.277c.65-1.12-2.887-4.383-7.898-7.288C6.187 6.085 1.593 4.641.944 5.763c-.65 1.123 2.888 4.383 7.9 7.288 5.013 2.904 9.602 4.348 10.251 3.226zM1.375 6.196c-.097-.228.106-.283.106-.283.897-.17 2.157.217 2.157.217 3.427.78 9.538 4.608 9.538 4.608 4.705 3.292 5.427 4.743 5.535 5.154a.185.185 0 0 1-.103.215c-.49.225-1.805-.11-1.805-.11-4.05-1.086-7.289-3.075-7.289-3.075-2.91-1.57-5.788-3.985-5.788-3.985-2.187-1.842-2.35-2.74-2.35-2.74l-.002-.001z"/><circle cx="9.995" cy="10.995" r="1.234"/><ellipse cx="15.055" cy="6.256" rx="1" ry="1"/><ellipse cx="3.306" cy="8.774" rx="1" ry="1"/><ellipse cx="8.539" cy="17.856" rx="1" ry="1"/></g></g></svg>
